T: Man In A Brown Hat
M: 4/4
L: 1/8
K: Dmin
"Dm"F2FG E2D2|"Bb"F2"C"G2 "Dm"A4|"F"A2AB "Gm"G2d2|"Am"cdcd AcFc|"Dm"D2FG E2D2|"Bb"F2"C"G2 "Dm"A4|"Bb"A2AB AGFG|"Am"E4 "Dm"D4:|
